src/img/ic_ltc_40.svg

<svg width="40" height="40" fill="none" xmlns="http://www.w3.org/2000/svg"><g clip-path="url(#a)"><path d="M20 40c11.0457 0 20-8.9543 20-20S31.0457 0 20 0 0 8.9543 0 20s8.9543 20 20 20Z" fill="#BFBBBB"/><path fill-rule="evenodd" clip-rule="evenodd" d="M13.0338 24.0175 11.25 24.71l.86-3.4487 1.805-.725L16.5163 10h6.4112l-1.8988 7.745 1.7625-.7138-.85 3.4376-1.7837.7137-1.06 4.3538H28.75L27.6588 30H11.565l1.4688-5.9825Z" fill="#fff"/></g><defs><clipPath id="a"><path fill="#fff" d="M0 0h40v40H0z"/></clipPath></defs></svg>

<svg width="40" height="40" viewBox="0 0 40 40" fill="none" xmlns="http://www.w3.org/2000/svg">
<g clip-path="url(#clip0_1501_24148)">
<path d="M20 40C31.0457 40 40 31.0457 40 20C40 8.9543 31.0457 0 20 0C8.9543 0 0 8.9543 0 20C0 31.0457 8.9543 40 20 40Z" fill="#BFBBBB"/>
<path fill-rule="evenodd" clip-rule="evenodd" d="M13.0338 24.0175L11.25 24.71L12.11 21.2613L13.915 20.5363L16.5163 10H22.9275L21.0287 17.745L22.7912 17.0312L21.9412 20.4688L20.1575 21.1825L19.0975 25.5363H28.75L27.6588 30H11.565L13.0338 24.0175Z" fill="white"/>
</g>
<defs>
<clipPath id="clip0_1501_24148">
<rect width="40" height="40" fill="white"/>
</clipPath>
</defs>
</svg>
